X:296
T:Speed the plough
R:Reel
O:Ireland, Scotland, England, USA
B:Kerr's First p24
B:Fiddler's Fakebook p254
B:New England Fiddler's Repertoire
B:Ceol Rince 2 n160
S:My arrangement from various sources,
S:mostly New England Fiddler's Repertoire
Z:Transcription, minor arr., chords:Mike Long
M:C|
L:1/8
K:A
E2 |\
 "A"ABcd efec | efec efec | "D"dfdB "A"cAcA |\
 "E"BAGF EFGB | "A"ABcd efec |
  efec eaec | "D"dfdB "A"cAcA | "E"BAGB "A"A2 :|\
|: (3(efg) |\
 "A"a2{b}ag aece | aA gA fA eA |
 "D"dfdB "A"cAcA | "E"BAGF EFGB | "A"A a2  g aece | aA gA fA eA |\
 "D"dfdB "A"cAcA | "E"BAGB "A"A2 :|
